images/logo/logo-tickets-420.svg

<svg width="85" height="42" viewBox="0 0 85 42" fill="none" xmlns="http://www.w3.org/2000/svg">
<path d="M0 41.0468L42.5 0L85 41.0468H0ZM71.1751 40.4289H83.1745L77.1793 34.6508L71.1751 40.4289ZM57.3062 40.4289H69.3056L63.3104 34.6508L57.3062 40.4289ZM43.4353 40.4289H55.4367L49.4345 34.6508L43.4353 40.4289ZM29.5404 40.4289H41.5907L35.5656 34.6508L29.5404 40.4289ZM15.6015 40.4289H27.6019L21.6067 34.6508L15.6015 40.4289ZM1.81255 40.4289H13.9129L7.91767 34.6528L1.81255 40.4289ZM36.1691 34.0649L42.449 40.2313L48.783 34.1178L42.453 27.9894L36.1691 34.0649ZM64.2966 33.6786C64.2053 33.7574 64.1456 33.8664 64.1285 33.9857C64.1115 34.1049 64.1381 34.2263 64.2036 34.3274V34.4552L64.2946 34.5041L68.9339 39.0625L70.2978 40.2154L76.6167 34.1168L70.4307 28.157H70.0679L64.2966 33.6786ZM22.2962 34.0669L28.6281 40.1784L34.958 34.0669L28.6281 27.9375L22.2962 34.0669ZM50.033 34.0669L56.4618 40.1764L62.7918 34.0669L56.4618 27.9394L50.033 34.0669ZM8.42726 34.0669L14.7552 40.1764L15.1998 39.7572L20.6285 34.5211C20.6998 34.4669 20.7576 34.397 20.7975 34.3168C20.8373 34.2367 20.8582 34.1484 20.8583 34.0589C20.8567 33.9633 20.8327 33.8694 20.7881 33.7848C20.7435 33.7002 20.6796 33.6272 20.6015 33.5718C19.5264 32.5588 18.4502 31.5097 17.3711 30.4617L15.7584 28.9006L14.7592 27.9375L8.42726 34.0669ZM15.3617 27.3705L21.7886 33.5679L21.9834 33.2245L27.6349 27.7578C27.7182 27.682 27.7734 27.5803 27.7915 27.4692C27.8096 27.3582 27.7897 27.2442 27.7348 27.1459V27.0162L27.6349 26.9303L22.1393 21.6802C22.0482 21.5862 21.945 21.5047 21.8325 21.4377L21.6327 21.3169L15.3617 27.3705ZM43.699 27.0152C43.6423 27.0586 43.5948 27.1129 43.5595 27.175C43.5241 27.2371 43.5016 27.3056 43.4932 27.3765C43.4921 27.4596 43.5084 27.542 43.5409 27.6184C43.5734 27.6949 43.6215 27.7638 43.6821 27.8207L48.8949 32.8881C49.0288 33.0339 49.1946 33.1926 49.3945 33.3672L49.6063 33.5599L55.9323 27.4544L49.1996 21.0025V21.7092L43.699 27.0152ZM57.0653 27.4144L63.3973 33.5279L69.7272 27.4144L63.3973 21.3029L57.0653 27.4144ZM29.2316 27.4144L35.5556 33.5199L36.0691 33.0618L36.8975 32.2713C38.3763 30.862 39.9061 29.4057 41.4159 27.8795C41.4897 27.8293 41.5505 27.7623 41.5934 27.6841C41.6363 27.6058 41.66 27.5186 41.6627 27.4294C41.6649 27.3331 41.6442 27.2377 41.6024 27.1509C41.5605 27.0642 41.4987 26.9886 41.4219 26.9303C39.7002 25.2874 38.0516 23.7114 36.4259 22.1174L35.5586 21.3079L29.2316 27.4144ZM22.2972 20.6701L28.6291 26.7796L34.959 20.6701L28.6291 14.5386L22.2972 20.6701ZM36.1681 20.6701L42.452 26.7667L48.782 20.6552L42.498 14.5417L36.1681 20.6701ZM50.037 20.6701L56.3689 26.7646L62.6988 20.6511L56.3669 14.5566L50.037 20.6701ZM49.2436 8.08779C49.2251 8.11713 49.2014 8.14283 49.1737 8.16363C47.3171 9.98421 45.4636 11.7848 43.5861 13.5665C43.5031 13.6395 43.4475 13.7386 43.4284 13.8475C43.4093 13.9564 43.4279 14.0685 43.4812 14.1653V14.2951L43.5811 14.3879L49.0078 19.6381L49.4874 20.0513L55.8064 13.9687L49.4454 7.7654L49.2436 8.08779ZM29.2306 13.9587L35.5476 20.0553L35.9472 19.7309L41.5098 14.365C41.6001 14.2853 41.6595 14.1766 41.6777 14.0577C41.696 13.9388 41.6719 13.8172 41.6097 13.7142V13.5844L41.5098 13.5046L35.6385 7.8682L29.2306 13.9587ZM36.5558 6.92695C36.4665 7.01821 36.4151 7.13976 36.4118 7.26728C36.4085 7.39479 36.4535 7.51889 36.5378 7.61468L42.452 13.309L48.784 7.19545L42.6679 1.32249H42.3042L36.5558 6.92695Z" fill="#9D8665"/>
</svg>

<svg xmlns="http://www.w3.org/2000/svg" width="85" height="42" fill="none"><path fill="#9D8665" d="M0 41.047 42.5 0 85 41.047zm71.175-.618h12l-5.996-5.778zm-13.869 0h12L63.31 34.65zm-13.87 0h12l-6.001-5.778zm-13.896 0h12.05l-6.024-5.778zm-13.938 0h12l-5.995-5.778zm-13.79 0h12.1l-5.994-5.776zm34.357-6.364 6.28 6.166 6.334-6.113-6.33-6.129zm28.128-.386a.5.5 0 0 0-.093.648v.128l.09.05 4.64 4.557 1.364 1.153 6.319-6.098-6.186-5.96h-.363zm-42 .388 6.331 6.111 6.33-6.111-6.33-6.13zm27.736 0 6.429 6.11 6.33-6.11-6.33-6.128zm-41.606 0 6.328 6.11.445-.42 5.429-5.236a.582.582 0 0 0-.027-.95c-1.076-1.012-2.152-2.061-3.23-3.11l-1.614-1.56-.999-.963zm6.935-6.696 6.427 6.197.194-.343 5.652-5.467a.5.5 0 0 0 .1-.612v-.13l-.1-.086-5.496-5.25a1.5 1.5 0 0 0-.306-.242l-.2-.121zm28.337-.356a.53.53 0 0 0-.206.361.6.6 0 0 0 .19.445l5.212 5.067q.2.218.5.48l.211.192 6.326-6.106-6.732-6.451v.706zm13.366.4 6.332 6.113 6.33-6.114-6.33-6.111zm-27.833 0 6.324 6.105.513-.458.828-.79c1.48-1.41 3.01-2.866 4.519-4.392a.56.56 0 0 0 .247-.45.61.61 0 0 0-.241-.5 511 511 0 0 1-4.996-4.813l-.867-.81zm-6.935-6.745 6.332 6.11 6.33-6.11-6.33-6.131zm13.871 0 6.284 6.097 6.33-6.112-6.284-6.113zm13.869 0 6.332 6.095 6.33-6.114-6.332-6.094zm-.793-12.582a.3.3 0 0 1-.07.076 474 474 0 0 1-5.588 5.403.486.486 0 0 0-.105.598v.13l.1.093 5.427 5.25.48.413 6.318-6.082-6.36-6.204zm-20.013 5.87 6.317 6.097.4-.324 5.562-5.366a.51.51 0 0 0 .1-.65v-.13l-.1-.08-5.871-5.637zm7.325-7.031a.505.505 0 0 0-.018.688l5.914 5.694 6.332-6.114-6.116-5.873h-.364z"/></svg>
